modules/hawcons-stroke/icons/icon-52-smiling-face.svg

<?xml version="1.0" encoding="UTF-8" standalone="no"?>
<svg width="32px" height="32px" viewBox="0 0 32 32" version="1.1" xmlns="http://www.w3.org/2000/svg" xmlns:xlink="http://www.w3.org/1999/xlink" xmlns:sketch="http://www.bohemiancoding.com/sketch/ns">
    <!-- Generator: Sketch 3.0.3 (7891) - http://www.bohemiancoding.com/sketch -->
    <title>icon 52 smiling face</title>
    <desc>Created with Sketch.</desc>
    <defs></defs>
    <g id="Page-1" stroke="none" stroke-width="1" fill="none" fill-rule="evenodd" sketch:type="MSPage">
        <g id="icon-52-smiling-face" sketch:type="MSArtboardGroup" fill="#929292">
            <path d="M16.5,29 C23.4035597,29 29,23.4035597 29,16.5 C29,9.59644029 23.4035597,4 16.5,4 C9.59644029,4 4,9.59644029 4,16.5 C4,23.4035597 9.59644029,29 16.5,29 L16.5,29 Z M16.5,28 C22.8512749,28 28,22.8512749 28,16.5 C28,10.1487251 22.8512749,5 16.5,5 C10.1487251,5 5,10.1487251 5,16.5 C5,22.8512749 10.1487251,28 16.5,28 L16.5,28 Z M16.4813232,22 C13,22 11,20 11,20 L11,21 C11,21 13,23 16.4813232,23 C19.9626465,23 22,21 22,21 L22,20 C22,20 19.9626465,22 16.4813232,22 L16.4813232,22 Z M18.6715729,13.7928932 L21.5,10.9644661 L24.3284271,13.7928932 L23.6213203,14.5 L21.5,12.3786797 L19.3786797,14.5 L18.6715729,13.7928932 L18.6715729,13.7928932 Z M8.67157288,13.7928932 L11.5,10.9644661 L14.3284271,13.7928932 L13.6213203,14.5 L11.5,12.3786797 L9.37867966,14.5 L8.67157288,13.7928932 L8.67157288,13.7928932 Z" id="smiling-face" sketch:type="MSShapeGroup"></path>
        </g>
    </g>
</svg>

<svg width="32" height="32" xmlns="http://www.w3.org/2000/svg"><path d="M16.5 29C23.404 29 29 23.404 29 16.5S23.404 4 16.5 4 4 9.596 4 16.5 9.596 29 16.5 29zm0-1C22.851 28 28 22.851 28 16.5S22.851 5 16.5 5 5 10.149 5 16.5 10.149 28 16.5 28zm-.019-6C13 22 11 20 11 20v1s2 2 5.481 2C19.963 23 22 21 22 21v-1s-2.037 2-5.519 2zm2.19-8.207l2.829-2.829 2.828 2.829-.707.707-2.121-2.121-2.121 2.121-.707-.707zm-10 0l2.829-2.829 2.828 2.829-.707.707-2.121-2.121L9.379 14.5l-.707-.707z" fill="#929292" fill-rule="evenodd"/></svg>
